**kern
*staff2
*tb8
=1-
*clefG2
*met(c)
*M4/4
8g\L
8ee\
8f\
8dd\J
8e/L
8cc/
8d/
8b/J
=2
8e/L
8cc/
8g/ 8b/
8f/J 8a/J
8e/L 8g/L
8c/
8f/ 8a/
8c/J
=3
4g/ 4cc/
.
4f/ 4b/
.
4f/ 4dd/
.
4e/ 4cc/
.
=4
!!linebreak:original
*^
4e/	2c\
.	.
4f#/	.
.	.
4g/	4B\
.	.
*v	*v
4r
.
=5
8A/L
8a/
8g/
8a/J
8f/L
8a/
8e/
8cc/J
=6
8d/L
8f/
8d/
8b/J
8c/L
8f/
8d/ 8a/
8f/J 8g/J
=7:|!
!!linebreak:original
=
2e/ 2g/
.
.
.
4d/
.
4c/
.
=8
4B/
.
4r
.
8d/L
8g/
8f/ 8b/
8cc/J
=9
[2f/ [2dd/
.
.
.
4f/] 4b/
.
8f/ 8cc/
8a/
=10
!!linebreak:original
*^
(2dd/]	[2f\ [2g\
.	.
.	.
.	.
4b/)	2f\] 2g\]
.	.
8a/L	.
8g/J	.
*v	*v
=11
8e/L 8g/L
8G/
8c/ 8e/
8G/J
8e/L 8g/L
8G/
8c/ 8e/
8G/J
=12
8g/L
8G/
8c/ 8e-/
8G/J
8g/L
8G/
8c/ 8e-/
8G/J
=13
*^
4ee-/	2g\
.	.
8dd/L	.
8cc/J	.
*v	*v
4g/ 4b/
.
4f/ 4g/
.
=14
!!linebreak:original
*^
2g/	2e-\
.	.
.	.
.	.
8a-/L 8cc/L	2c\
8a-/J 8cc/J	.
8g/J 8b-/J	.
8f/J 8a-/J	.
=15	=15
4f/ 4a-/	2c\
.	.
4e/ 4g/	.
.	.
2a-/ 2cc/	4c\
.	.
.	4f\
.	.
*v	*v
=16
4f/ 4a-/
.
4e/ 4g/
.
4e/ 4g/
.
4d/ 4g/
.
=17
!!linebreak:original
4e/ 4cc/
.
4e/ 4b/
.
4f/ 4a/
.
4g/
.
=18
4f/
.
4r
.
[2g/
.
.
.
=19
4g/]
.
2g/
.
.
.
4f/
.
=20
!!linebreak:original
2c/ 2e/
.
.
.
4c\
.
4B\
.
=21
1r
.
.
.
.
.
.
.
=22
1r
.
.
.
.
.
.
.
==
*-
